X: 40
%
U:~=!turn!
T: Black but Comely
C:
O:Scotland
B:Keith Norman MacDonald : "The Skye collection of the best reels & strathspeys extant" : 1887
Z:Ralph Palmer
R:Reel
M:C|
L:1/8
K:A mixolydian
A | {/c}d2 fd AAfd | eefd TB2 AB | {/c}defd AAfd |
Tfe{/c}dB {cB}A2 A :: f | adad Tfeef | adad TB2 (Bf) |
[1 adad feef | {/c}de{/c}dB {cB}A2 A :| [2 adab afef | {/c}de{/c}dB {cB}A2 A |]


